main/svg/commandBlockArrow4x.svg

<svg xmlns="http://www.w3.org/2000/svg" width="32" height="128"><path d="M5.996 32 12 26h8l6 6V8l-8.004-8H14L5.996 8Zm0 32L12 58h8l6 6V40l-8.004-8H14l-8.004 8Zm0 32L12 90h8l6 6V72l-8.004-8H14l-8.004 8Zm0 0" style="stroke:none;fill-rule:nonzero;fill:#000;fill-opacity:1"/><path d="M5.996 128 12 122h8l6 6v-24l-8.004-8.004H14l-8.004 8Zm0 0" style="stroke:none;fill-rule:nonzero;fill:#000;fill-opacity:1"/></svg>

<svg xmlns="http://www.w3.org/2000/svg" width="32" height="128"><path d="m6 32 6-6h8l6 6V8l-8-8h-4L6 8Zm0 32 6-6h8l6 6V40l-8-8h-4l-8 8Zm0 32 6-6h8l6 6V72l-8-8h-4l-8 8Zm0 32 6-6h8l6 6v-24l-8-8h-4l-8 8Zm0 0" style="stroke:none;fill-rule:nonzero;fill:#000;fill-opacity:1"/></svg>
